X:71
T:Corner House, The
R:reel
C:Said to be adapted from "The Battle of Aughrim" by Martin "Junior" Crehan (1908-1998)
Z:id:hn-reel-71
M:C|
K:Ador
EAAG ABcd|e2dB cAAG|EGGF G2AB|cABG AGED|
EAAG ABcd|e2af gedB|d2Bd efge|1 dBGB A2AG:|2 dBGB A2Bd||
|:eaag a2ga|bgab gedB|d2Bd edBd|(3efg fa gdBd|
eaag a2ga|bgab gedB|d2Bd efge|1 dBGB A2Bd:|2 dBGB A2AG||
<end>
<start>
